src/status/24/audio-input-microphone-medium-panel.svg

<svg width="24" height="24" version="1.1" viewBox="0 0 24 24" xmlns="http://www.w3.org/2000/svg" xmlns:xlink="http://www.w3.org/1999/xlink">
 <defs>
  <filter id="alpha" x="0%" y="0%" width="100%" height="100%">
   <feColorMatrix in="SourceGraphic" values="0 0 0 0 1 0 0 0 0 1 0 0 0 0 1 0 0 0 1 0"/>
  </filter>
  <mask id="mask0">
   <g filter="url(#alpha)">
    <rect width="24" height="24" style="fill-opacity:.4;fill:rgb(0%,0%,0%)"/>
   </g>
  </mask>
  <clipPath id="clip1">
   <rect width="24" height="24"/>
  </clipPath>
  <g id="surface5" clip-path="url(#clip1)">
   <path d="m22.910156 4.636719c0 1.355469-1.085937 2.453125-2.425781 2.453125-1.335937 0-2.425781-1.09375-2.425781-2.453125 0-1.355469 1.089844-2.457031 2.425781-2.457031 1.34375 0 2.425781 1.101562 2.425781 2.457031z" style="fill:rgb(18.039216%,20.392157%,25.098041%)"/>
  </g>
 </defs>
 <g id="surface1">
  <path d="m8.359375 2.179688c-2.003906 0-3.632813 1.652343-3.632813 3.683593v6.148438c0 2.03125 1.628907 3.679687 3.632813 3.679687 2.011719 0 3.640625-1.648437 3.640625-3.679687v-6.148438c0-2.03125-1.628906-3.683593-3.640625-3.683593z" style="fill:rgb(18.039216%,20.392157%,25.098041%)"/>
  <path d="m1.089844 12c0 3.652344 2.621094 6.667969 6.0625 7.246094v1.34375h-1.214844v1.230468h4.84375v-1.230468h-1.210938v-1.34375c3.445313-0.578125 6.058594-3.59375 6.058594-7.246094h-2.425781c0 2.714844-2.171875 4.910156-4.851563 4.910156-2.675781 0-4.84375-2.199218-4.84375-4.910156z" style="fill:rgb(18.039216%,20.392157%,25.098041%)"/>
  <use mask="url(#mask0)" xlink:href="#surface5"/>
  <path d="m22.910156 12c0 1.351562-1.085937 2.457031-2.425781 2.457031-1.335937 0-2.425781-1.101562-2.425781-2.457031 0-1.351562 1.089844-2.457031 2.425781-2.457031 1.34375 0 2.425781 1.101562 2.425781 2.457031z" style="fill:rgb(18.039216%,20.392157%,25.098041%)"/>
  <path d="m22.910156 19.363281c0 1.355469-1.085937 2.457031-2.425781 2.457031-1.335937 0-2.425781-1.101562-2.425781-2.457031s1.089844-2.453125 2.425781-2.453125c1.34375 0 2.425781 1.09375 2.425781 2.453125z" style="fill:rgb(18.039216%,20.392157%,25.098041%)"/>
 </g>
</svg>

<svg xmlns="http://www.w3.org/2000/svg" xmlns:xlink="http://www.w3.org/1999/xlink" width="24" height="24" viewBox="0 0 24 24" version="1.1">
<defs>
<filter id="alpha" filterUnits="objectBoundingBox" x="0%" y="0%" width="100%" height="100%">
  <feColorMatrix type="matrix" in="SourceGraphic" values="0 0 0 0 1 0 0 0 0 1 0 0 0 0 1 0 0 0 1 0"/>
</filter>
<mask id="mask0">
  <g filter="url(#alpha)">
<rect x="0" y="0" width="24" height="24" style="fill:rgb(0%,0%,0%);fill-opacity:0.4;stroke:none;"/>
  </g>
</mask>
<clipPath id="clip1">
  <rect x="0" y="0" width="24" height="24"/>
</clipPath>
<g id="surface5" clip-path="url(#clip1)">
<path style=" stroke:none;fill-rule:nonzero;fill:rgb(18.039216%,20.392157%,25.098041%);fill-opacity:1;" d="M 22.910156 4.636719 C 22.910156 5.992188 21.824219 7.089844 20.484375 7.089844 C 19.148438 7.089844 18.058594 5.996094 18.058594 4.636719 C 18.058594 3.28125 19.148438 2.179688 20.484375 2.179688 C 21.828125 2.179688 22.910156 3.28125 22.910156 4.636719 Z M 22.910156 4.636719 "/>
</g>
</defs>
<g id="surface1">
<path style=" stroke:none;fill-rule:nonzero;fill:rgb(18.039216%,20.392157%,25.098041%);fill-opacity:1;" d="M 8.359375 2.179688 C 6.355469 2.179688 4.726562 3.832031 4.726562 5.863281 L 4.726562 12.011719 C 4.726562 14.042969 6.355469 15.691406 8.359375 15.691406 C 10.371094 15.691406 12 14.042969 12 12.011719 L 12 5.863281 C 12 3.832031 10.371094 2.179688 8.359375 2.179688 Z M 8.359375 2.179688 "/>
<path style=" stroke:none;fill-rule:nonzero;fill:rgb(18.039216%,20.392157%,25.098041%);fill-opacity:1;" d="M 1.089844 12 C 1.089844 15.652344 3.710938 18.667969 7.152344 19.246094 L 7.152344 20.589844 L 5.9375 20.589844 L 5.9375 21.820312 L 10.78125 21.820312 L 10.78125 20.589844 L 9.570312 20.589844 L 9.570312 19.246094 C 13.015625 18.667969 15.628906 15.652344 15.628906 12 L 13.203125 12 C 13.203125 14.714844 11.03125 16.910156 8.351562 16.910156 C 5.675781 16.910156 3.507812 14.710938 3.507812 12 Z M 1.089844 12 "/>
<use xlink:href="#surface5" mask="url(#mask0)"/>
<path style=" stroke:none;fill-rule:nonzero;fill:rgb(18.039216%,20.392157%,25.098041%);fill-opacity:1;" d="M 22.910156 12 C 22.910156 13.351562 21.824219 14.457031 20.484375 14.457031 C 19.148438 14.457031 18.058594 13.355469 18.058594 12 C 18.058594 10.648438 19.148438 9.542969 20.484375 9.542969 C 21.828125 9.542969 22.910156 10.644531 22.910156 12 Z M 22.910156 12 "/>
<path style=" stroke:none;fill-rule:nonzero;fill:rgb(18.039216%,20.392157%,25.098041%);fill-opacity:1;" d="M 22.910156 19.363281 C 22.910156 20.71875 21.824219 21.820312 20.484375 21.820312 C 19.148438 21.820312 18.058594 20.71875 18.058594 19.363281 C 18.058594 18.007812 19.148438 16.910156 20.484375 16.910156 C 21.828125 16.910156 22.910156 18.003906 22.910156 19.363281 Z M 22.910156 19.363281 "/>
</g>
</svg>
